assets/images/icons/src/bed.svg

<?xml version="1.0" encoding="utf-8"?>
<!-- Generated by IcoMoon.io -->
<!DOCTYPE svg PUBLIC "-//W3C//DTD SVG 1.1//EN" "http://www.w3.org/Graphics/SVG/1.1/DTD/svg11.dtd">
<svg version="1.1" xmlns="http://www.w3.org/2000/svg" xmlns:xlink="http://www.w3.org/1999/xlink" width="16" height="14" viewBox="0 0 16 14">
<path fill="#444444" d="M2 8h13.5q0.203 0 0.352 0.148t0.148 0.352v3.5h-2v-2h-12v2h-2v-9.5q0-0.203 0.148-0.352t0.352-0.148h1q0.203 0 0.352 0.148t0.148 0.352v5.5zM6.5 5.5q0-0.828-0.586-1.414t-1.414-0.586-1.414 0.586-0.586 1.414 0.586 1.414 1.414 0.586 1.414-0.586 0.586-1.414zM16 7.5v-0.5q0-1.242-0.879-2.121t-2.121-0.879h-5.5q-0.203 0-0.352 0.148t-0.148 0.352v3h9z"></path>
</svg>

<svg xmlns="http://www.w3.org/2000/svg" width="16" height="14" viewBox="0 0 16 14"><path fill="#444" d="M2 8h13.5q.203 0 .352.148T16 8.5V12h-2v-2H2v2H0V2.5q0-.203.148-.352T.5 2h1q.203 0 .352.148T2 2.5V8zm4.5-2.5q0-.828-.586-1.414T4.5 3.5t-1.414.586T2.5 5.5t.586 1.414T4.5 7.5t1.414-.586T6.5 5.5zm9.5 2V7q0-1.242-.879-2.121T13 4H7.5q-.203 0-.352.148T7 4.5v3h9z"/></svg>
